status/symbolic/media-playlist-consecutive-symbolic-rtl.svg

<?xml version="1.0" encoding="UTF-8" standalone="no"?>
<svg
   height="16"
   width="16"
   version="1.1"
   id="svg6"
   xmlns="http://www.w3.org/2000/svg"
   xmlns:svg="http://www.w3.org/2000/svg">
  <defs
     id="defs10" />
  <path
     id="path933"
     style="color:#bebebe;font-variation-settings:normal;opacity:1;vector-effect:none;fill:#555761;fill-opacity:1;stroke:none;stroke-width:4;stroke-linecap:round;stroke-linejoin:round;stroke-miterlimit:4;stroke-dasharray:none;stroke-dashoffset:0;stroke-opacity:1;-inkscape-stroke:none;marker:none;stop-color:#000000;stop-opacity:1"
     d="M 4.400752,1.0351562 C 4.667752,1.0221563 4.957205,1.223 4.965205,1.5 V 3 h 9.5 c 0.261,0 0.5,0.238 0.5,0.5 v 1 c 0.003,0.031261 0.003,0.062489 0,0.09375 -0.05171,0.2353002 -0.259095,0.40394 -0.5,0.40625 h -9.5 v 1.5 c -0.012,0.369 -0.5245,0.605 -0.8125,0.375 l -3,-2.5 c -0.211835,-0.205126 -0.211835,-0.544874 0,-0.75 l 3,-2.5 C 4.223936,1.069128 4.310262,1.0377363 4.400752,1.0351562 Z m 0,8 C 4.667752,9.0221562 4.957205,9.223 4.965205,9.5 V 11 h 9.5 c 0.261,0 0.5,0.238 0.5,0.5 v 1 c 0.003,0.03126 0.003,0.06249 0,0.09375 -0.05171,0.2353 -0.259095,0.40395 -0.5,0.40625 h -9.5 v 1.5 c -0.012,0.369 -0.5245,0.605 -0.8125,0.375 l -3,-2.5 c -0.211835,-0.205126 -0.211835,-0.544874 0,-0.75 l 3,-2.5 C 4.223936,9.069128 4.310262,9.0377363 4.400752,9.0351562 Z" />
</svg>

<svg
        xmlns='http://www.w3.org/2000/svg'
        xmlns:svg='http://www.w3.org/2000/svg'
        id='svg6'
        width='16'
        height='16'>
  <path
          id='path933'
          opacity='1'
          color='rgb(190,190,190)'
          fill='url(#gpa:foreground) #555761'
          fill-opacity='1'
          fill-rule='nonzero'
          stroke='none'
          stroke-opacity='1'
          stroke-width='4'
          stroke-linecap='round'
          stroke-linejoin='round'
          stroke-miterlimit='4'
          stroke-dasharray='none'
          stroke-dashoffset='0'
          marker-start='none'
          marker-mid='none'
          marker-end='none'
          d='M 4.40075 1.03516 C 4.66775 1.02216, 4.9572 1.223, 4.96521 1.5 L 4.96521 3 L 14.4652 3 C 14.7262 3, 14.9652 3.238, 14.9652 3.5 L 14.9652 4.5 C 14.9682 4.53126, 14.9682 4.56249, 14.9652 4.59375 C 14.9135 4.82905, 14.7061 4.99769, 14.4652 5 L 4.96521 5 L 4.96521 6.5 C 4.95321 6.869, 4.4407 7.105, 4.15271 6.875 L 1.1527 4.375 C 0.94087 4.16987, 0.94087 3.83013, 1.1527 3.625 L 4.15271 1.125 C 4.22394 1.06913, 4.31026 1.03774, 4.40075 1.03516 Z M 4.40075 9.03516 C 4.66775 9.02216, 4.9572 9.223, 4.96521 9.5 L 4.96521 11 L 14.4652 11 C 14.7262 11, 14.9652 11.238, 14.9652 11.5 L 14.9652 12.5 C 14.9682 12.5313, 14.9682 12.5625, 14.9652 12.5938 C 14.9135 12.8291, 14.7061 12.9977, 14.4652 13 L 4.96521 13 L 4.96521 14.5 C 4.95321 14.869, 4.4407 15.105, 4.15271 14.875 L 1.1527 12.375 C 0.94087 12.1699, 0.94087 11.8301, 1.1527 11.625 L 4.15271 9.125 C 4.22394 9.06913, 4.31026 9.03774, 4.40075 9.03516 Z'
          class="foreground">
  </path>
</svg>
